X: 1
T: the Sydney Flash
O: Australia
R: clog, hornpipe
S: http://www.colonialdance.com.au/clog-dancing-1285.html
Z: 2013 John Chambers <jc:trillian.mit.edu>
M: C|
L: 1/8
K: Bb
F2 |:\
"Gm"B2 d>c B>c B>G | "Bb"F>G F>E D>C B,>B, |\
"Gm"B,>D D>F G>A "Eb"c>B | "F"A>F G>A [1 B>A G>F :|[2 "Bb"B2 ||
F2 |\
"Bb"d2dd FABd | "Eb"ef/e/ ee F2Bc |\
"Bb"d2dd FABd | "F"cBAG F2"Bb"Bc |
"Bb"d2dd FABd | "Eb"ef/e/ ee dcBG |\
"Bb"FABd "F7"ecAF | "Bb".B2.d2 .B2 |]
